assets/img/main/trust/hyundai.svg

<svg width="267" height="58" viewBox="0 0 267 58" fill="none" xmlns="http://www.w3.org/2000/svg">
<path d="M33.5002 0L66.8422 57.75H0.158203L33.5002 0Z" fill="#FEB515"/>
<path d="M39.5002 0L72.8422 57.75H6.1582L39.5002 0Z" fill="#098636"/>
<path d="M101.397 9H109.893V34.2H101.397V9ZM93.5487 34.2H85.0527V9H93.5487V34.2ZM101.973 24.912H92.9727V17.928H101.973V24.912Z" fill="#101010"/>
<path d="M121.006 34.2V23.148L122.95 28.224L111.502 9H120.466L128.206 22.14H122.986L130.798 9H139.006L127.63 28.224L129.502 23.148V34.2H121.006Z" fill="#101010"/>
<path d="M152.333 34.776C148.469 34.776 145.457 33.732 143.297 31.644C141.137 29.556 140.057 26.628 140.057 22.86V9H148.553V22.608C148.553 24.528 148.901 25.896 149.597 26.712C150.293 27.504 151.229 27.9 152.405 27.9C153.605 27.9 154.541 27.504 155.213 26.712C155.909 25.896 156.257 24.528 156.257 22.608V9H164.609V22.86C164.609 26.628 163.529 29.556 161.369 31.644C159.209 33.732 156.197 34.776 152.333 34.776Z" fill="#101010"/>
<path d="M169.044 34.2V9H176.028L188.844 24.336H185.604V9H193.884V34.2H186.9L174.084 18.864H177.324V34.2H169.044Z" fill="#101010"/>
<path d="M198.517 34.2V9H210.937C213.745 9 216.217 9.516 218.353 10.548C220.489 11.556 222.157 12.996 223.357 14.868C224.557 16.74 225.157 18.972 225.157 21.564C225.157 24.18 224.557 26.436 223.357 28.332C222.157 30.204 220.489 31.656 218.353 32.688C216.217 33.696 213.745 34.2 210.937 34.2H198.517ZM207.013 27.576H210.577C211.777 27.576 212.821 27.348 213.709 26.892C214.621 26.436 215.329 25.764 215.833 24.876C216.337 23.964 216.589 22.86 216.589 21.564C216.589 20.292 216.337 19.212 215.833 18.324C215.329 17.436 214.621 16.764 213.709 16.308C212.821 15.852 211.777 15.624 210.577 15.624H207.013V27.576Z" fill="#101010"/>
<path d="M225.712 34.2L236.728 9H245.08L256.096 34.2H247.312L239.176 13.032H242.488L234.352 34.2H225.712ZM232.264 29.808L234.424 23.688H246.016L248.176 29.808H232.264Z" fill="#101010"/>
<path d="M257.992 34.2V9H266.488V34.2H257.992Z" fill="#101010"/>
<path d="M88.888 46.2805H94.504V49.3405H88.888V46.2805ZM89.176 50.9965H95.476V54.2005H85V41.6005H95.242V44.8045H89.176V50.9965Z" fill="#101010"/>
<path d="M97.3813 54.2005V41.6005H101.629V50.9065H107.317V54.2005H97.3813Z" fill="#101010"/>
<path d="M112.649 46.2805H118.265V49.3405H112.649V46.2805ZM112.937 50.9965H119.237V54.2005H108.761V41.6005H119.003V44.8045H112.937V50.9965Z" fill="#101010"/>
<path d="M124.926 54.2005L119.598 41.6005H124.17L128.508 52.2385H125.79L130.254 41.6005H134.43L129.102 54.2005H124.926Z" fill="#101010"/>
<path d="M133.298 54.2005L138.806 41.6005H142.982L148.49 54.2005H144.098L140.03 43.6165H141.686L137.618 54.2005H133.298ZM136.574 52.0045L137.654 48.9445H143.45L144.53 52.0045H136.574Z" fill="#101010"/>
<path d="M151.541 54.2005V44.8945H147.851V41.6005H159.479V44.8945H155.789V54.2005H151.541Z" fill="#101010"/>
<path d="M167.283 54.4885C166.263 54.4885 165.315 54.3265 164.439 54.0025C163.575 53.6785 162.825 53.2225 162.189 52.6345C161.553 52.0345 161.055 51.3325 160.695 50.5285C160.347 49.7245 160.173 48.8485 160.173 47.9005C160.173 46.9405 160.347 46.0645 160.695 45.2725C161.055 44.4685 161.553 43.7725 162.189 43.1845C162.825 42.5845 163.575 42.1225 164.439 41.7985C165.315 41.4745 166.263 41.3125 167.283 41.3125C168.315 41.3125 169.263 41.4745 170.127 41.7985C170.991 42.1225 171.741 42.5845 172.377 43.1845C173.013 43.7725 173.505 44.4685 173.853 45.2725C174.213 46.0645 174.393 46.9405 174.393 47.9005C174.393 48.8485 174.213 49.7245 173.853 50.5285C173.505 51.3325 173.013 52.0345 172.377 52.6345C171.741 53.2225 170.991 53.6785 170.127 54.0025C169.263 54.3265 168.315 54.4885 167.283 54.4885ZM167.283 51.0505C167.679 51.0505 168.045 50.9785 168.381 50.8345C168.729 50.6905 169.029 50.4865 169.281 50.2225C169.545 49.9465 169.749 49.6165 169.893 49.2325C170.037 48.8365 170.109 48.3925 170.109 47.9005C170.109 47.4085 170.037 46.9705 169.893 46.5865C169.749 46.1905 169.545 45.8605 169.281 45.5965C169.029 45.3205 168.729 45.1105 168.381 44.9665C168.045 44.8225 167.679 44.7505 167.283 44.7505C166.887 44.7505 166.515 44.8225 166.167 44.9665C165.831 45.1105 165.531 45.3205 165.267 45.5965C165.015 45.8605 164.817 46.1905 164.673 46.5865C164.529 46.9705 164.457 47.4085 164.457 47.9005C164.457 48.3925 164.529 48.8365 164.673 49.2325C164.817 49.6165 165.015 49.9465 165.267 50.2225C165.531 50.4865 165.831 50.6905 166.167 50.8345C166.515 50.9785 166.887 51.0505 167.283 51.0505Z" fill="#101010"/>
<path d="M176.204 54.2005V41.6005H182.27C183.446 41.6005 184.46 41.7925 185.312 42.1765C186.176 42.5605 186.842 43.1125 187.31 43.8325C187.778 44.5405 188.012 45.3805 188.012 46.3525C188.012 47.3245 187.778 48.1645 187.31 48.8725C186.842 49.5685 186.176 50.1025 185.312 50.4745C184.46 50.8465 183.446 51.0325 182.27 51.0325H178.562L180.452 49.2865V54.2005H176.204ZM183.746 54.2005L180.65 49.6105H185.15L188.282 54.2005H183.746ZM180.452 49.7545L178.562 47.8285H182C182.588 47.8285 183.02 47.6965 183.296 47.4325C183.584 47.1685 183.728 46.8085 183.728 46.3525C183.728 45.8965 183.584 45.5365 183.296 45.2725C183.02 45.0085 182.588 44.8765 182 44.8765H178.562L180.452 42.9505V49.7545Z" fill="#101010"/>
<path d="M194.585 54.4885C193.529 54.4885 192.509 54.3685 191.525 54.1285C190.541 53.8885 189.731 53.5765 189.095 53.1925L190.463 50.0965C191.063 50.4445 191.729 50.7265 192.461 50.9425C193.205 51.1465 193.925 51.2485 194.621 51.2485C195.029 51.2485 195.347 51.2245 195.575 51.1765C195.815 51.1165 195.989 51.0385 196.097 50.9425C196.205 50.8345 196.259 50.7085 196.259 50.5645C196.259 50.3365 196.133 50.1565 195.881 50.0245C195.629 49.8925 195.293 49.7845 194.873 49.7005C194.465 49.6045 194.015 49.5085 193.523 49.4125C193.031 49.3045 192.533 49.1665 192.029 48.9985C191.537 48.8305 191.081 48.6085 190.661 48.3325C190.253 48.0565 189.923 47.6965 189.671 47.2525C189.419 46.7965 189.293 46.2325 189.293 45.5605C189.293 44.7805 189.509 44.0725 189.941 43.4365C190.385 42.7885 191.039 42.2725 191.903 41.8885C192.779 41.5045 193.865 41.3125 195.161 41.3125C196.013 41.3125 196.853 41.4025 197.681 41.5825C198.509 41.7625 199.253 42.0385 199.913 42.4105L198.635 45.4885C198.011 45.1765 197.405 44.9425 196.817 44.7865C196.241 44.6305 195.677 44.5525 195.125 44.5525C194.717 44.5525 194.393 44.5885 194.153 44.6605C193.913 44.7325 193.739 44.8285 193.631 44.9485C193.535 45.0685 193.487 45.2005 193.487 45.3445C193.487 45.5605 193.613 45.7345 193.865 45.8665C194.117 45.9865 194.447 46.0885 194.855 46.1725C195.275 46.2565 195.731 46.3465 196.223 46.4425C196.727 46.5385 197.225 46.6705 197.717 46.8385C198.209 47.0065 198.659 47.2285 199.067 47.5045C199.487 47.7805 199.823 48.1405 200.075 48.5845C200.327 49.0285 200.453 49.5805 200.453 50.2405C200.453 51.0085 200.231 51.7165 199.787 52.3645C199.355 53.0005 198.707 53.5165 197.843 53.9125C196.979 54.2965 195.893 54.4885 194.585 54.4885Z" fill="#101010"/>
<path d="M201.942 57.0805L203.454 52.0225L204.048 54.2905C203.352 54.2905 202.782 54.0925 202.338 53.6965C201.894 53.2885 201.672 52.7365 201.672 52.0405C201.672 51.3325 201.894 50.7745 202.338 50.3665C202.794 49.9465 203.364 49.7365 204.048 49.7365C204.732 49.7365 205.296 49.9465 205.74 50.3665C206.196 50.7745 206.424 51.3325 206.424 52.0405C206.424 52.2325 206.406 52.4245 206.37 52.6165C206.346 52.8085 206.286 53.0425 206.19 53.3185C206.094 53.5825 205.938 53.9425 205.722 54.3985L204.462 57.0805H201.942Z" fill="#101010"/>
<path d="M213.741 54.2005V41.6005H217.989V50.9065H223.677V54.2005H213.741Z" fill="#101010"/>
<path d="M225.121 54.2005V41.6005H229.369V50.9065H235.057V54.2005H225.121Z" fill="#101010"/>
<path d="M236.5 54.2005V41.6005H242.566C243.742 41.6005 244.756 41.7925 245.608 42.1765C246.472 42.5605 247.138 43.1125 247.606 43.8325C248.074 44.5405 248.308 45.3805 248.308 46.3525C248.308 47.3245 248.074 48.1645 247.606 48.8725C247.138 49.5805 246.472 50.1325 245.608 50.5285C244.756 50.9125 243.742 51.1045 242.566 51.1045H238.858L240.748 49.2865V54.2005H236.5ZM240.748 49.7545L238.858 47.8285H242.296C242.884 47.8285 243.316 47.6965 243.592 47.4325C243.88 47.1685 244.024 46.8085 244.024 46.3525C244.024 45.8965 243.88 45.5365 243.592 45.2725C243.316 45.0085 242.884 44.8765 242.296 44.8765H238.858L240.748 42.9505V49.7545Z" fill="#101010"/>
</svg>

<svg width="267" height="58" fill="none" xmlns="http://www.w3.org/2000/svg"><path d="M33.5 0l33.342 57.75H.158L33.5 0z" fill="#FEB515"/><path d="M39.5 0l33.342 57.75H6.158L39.5 0z" fill="#098636"/><path d="M101.397 9h8.496v25.2h-8.496V9zm-7.848 25.2h-8.496V9h8.496v25.2zm8.424-9.288h-9v-6.984h9v6.984zm19.033 9.288V23.148l1.944 5.076L111.502 9h8.964l7.74 13.14h-5.22L130.798 9h8.208L127.63 28.224l1.872-5.076V34.2h-8.496zm31.327.576c-3.864 0-6.876-1.044-9.036-3.132-2.16-2.088-3.24-5.016-3.24-8.784V9h8.496v13.608c0 1.92.348 3.288 1.044 4.104.696.792 1.632 1.188 2.808 1.188 1.2 0 2.136-.396 2.808-1.188.696-.816 1.044-2.184 1.044-4.104V9h8.352v13.86c0 3.768-1.08 6.696-3.24 8.784-2.16 2.088-5.172 3.132-9.036 3.132zm16.711-.576V9h6.984l12.816 15.336h-3.24V9h8.28v25.2H186.9l-12.816-15.336h3.24V34.2h-8.28zm29.473 0V9h12.42c2.808 0 5.28.516 7.416 1.548 2.136 1.008 3.804 2.448 5.004 4.32 1.2 1.872 1.8 4.104 1.8 6.696 0 2.616-.6 4.872-1.8 6.768-1.2 1.872-2.868 3.324-5.004 4.356-2.136 1.008-4.608 1.512-7.416 1.512h-12.42zm8.496-6.624h3.564c1.2 0 2.244-.228 3.132-.684a4.922 4.922 0 002.124-2.016c.504-.912.756-2.016.756-3.312 0-1.272-.252-2.352-.756-3.24a4.922 4.922 0 00-2.124-2.016c-.888-.456-1.932-.684-3.132-.684h-3.564v11.952zm18.699 6.624L236.728 9h8.352l11.016 25.2h-8.784l-8.136-21.168h3.312L234.352 34.2h-8.64zm6.552-4.392l2.16-6.12h11.592l2.16 6.12h-15.912zm25.728 4.392V9h8.496v25.2h-8.496zM88.888 46.28h5.616v3.06h-5.616v-3.06zm.288 4.716h6.3V54.2H85V41.6h10.242v3.204h-6.066v6.192zm8.205 3.204V41.6h4.248v9.306h5.688V54.2h-9.936zm15.268-7.92h5.616v3.06h-5.616v-3.06zm.288 4.716h6.3V54.2h-10.476V41.6h10.242v3.204h-6.066v6.192zm11.989 3.204l-5.328-12.6h4.572l4.338 10.639h-2.718l4.464-10.639h4.176l-5.328 12.6h-4.176zm8.372 0l5.508-12.6h4.176l5.508 12.6h-4.392l-4.068-10.584h1.656L137.618 54.2h-4.32zm3.276-2.196l1.08-3.06h5.796l1.08 3.06h-7.956zm14.967 2.196v-9.306h-3.69V41.6h11.628v3.294h-3.69V54.2h-4.248zm15.742.289a8.136 8.136 0 01-2.844-.486 6.781 6.781 0 01-2.25-1.368 6.541 6.541 0 01-1.494-2.106 6.545 6.545 0 01-.522-2.629c0-.96.174-1.835.522-2.627a6.34 6.34 0 011.494-2.089 6.63 6.63 0 012.25-1.386 8.136 8.136 0 012.844-.486c1.032 0 1.98.163 2.844.486a6.63 6.63 0 012.25 1.386 6.124 6.124 0 011.476 2.089c.36.791.54 1.667.54 2.627 0 .949-.18 1.825-.54 2.629a6.313 6.313 0 01-1.476 2.105 6.781 6.781 0 01-2.25 1.368c-.864.325-1.812.486-2.844.486zm0-3.438c.396 0 .762-.073 1.098-.217.348-.144.648-.348.9-.612.264-.276.468-.605.612-.99.144-.395.216-.84.216-1.331 0-.493-.072-.93-.216-1.315a2.663 2.663 0 00-.612-.99 2.496 2.496 0 00-.9-.63 2.758 2.758 0 00-1.098-.215 2.89 2.89 0 00-1.116.216 2.72 2.72 0 00-.9.63c-.252.264-.45.593-.594.99a3.725 3.725 0 00-.216 1.313c0 .492.072.937.216 1.333.144.384.342.714.594.99.264.264.564.468.9.611.348.144.72.216 1.116.216zm8.921 3.149V41.6h6.066c1.176 0 2.19.192 3.042.576.864.384 1.53.936 1.998 1.657.468.708.702 1.547.702 2.52 0 .971-.234 1.811-.702 2.52-.468.696-1.134 1.23-1.998 1.602-.852.371-1.866.557-3.042.557h-3.708l1.89-1.745V54.2h-4.248zm7.542 0l-3.096-4.59h4.5l3.132 4.59h-4.536zm-3.294-4.446l-1.89-1.925H182c.588 0 1.02-.133 1.296-.397.288-.264.432-.623.432-1.08 0-.455-.144-.816-.432-1.08-.276-.264-.708-.395-1.296-.395h-3.438l1.89-1.927v6.804zm14.133 4.735c-1.056 0-2.076-.12-3.06-.36s-1.794-.552-2.43-.936l1.368-3.096c.6.347 1.266.63 1.998.846a8.156 8.156 0 002.16.306c.408 0 .726-.025.954-.073.24-.06.414-.138.522-.233a.518.518 0 00.162-.378c0-.228-.126-.408-.378-.54-.252-.133-.588-.24-1.008-.325a36.172 36.172 0 00-1.35-.288c-.492-.108-.99-.245-1.494-.413a6.023 6.023 0 01-1.368-.666 3.174 3.174 0 01-.99-1.08c-.252-.456-.378-1.02-.378-1.693 0-.78.216-1.488.648-2.123.444-.648 1.098-1.164 1.962-1.548.876-.385 1.962-.577 3.258-.577.852 0 1.692.09 2.52.27.828.18 1.572.456 2.232.828l-1.278 3.079a9.564 9.564 0 00-1.818-.703 6.456 6.456 0 00-1.692-.233c-.408 0-.732.036-.972.108-.24.072-.414.167-.522.288a.62.62 0 00-.144.395c0 .216.126.39.378.523.252.12.582.222.99.306.42.084.876.173 1.368.27a10.97 10.97 0 011.494.396c.492.168.942.39 1.35.666.42.276.756.636 1.008 1.08.252.444.378.995.378 1.655a3.68 3.68 0 01-.666 2.124c-.432.637-1.08 1.153-1.944 1.549-.864.384-1.95.576-3.258.576zm7.357 2.591l1.512-5.057.594 2.267c-.696 0-1.266-.197-1.71-.593-.444-.409-.666-.96-.666-1.657 0-.707.222-1.265.666-1.673.456-.42 1.026-.63 1.71-.63.684 0 1.248.21 1.692.63.456.408.684.966.684 1.674 0 .192-.018.384-.054.576a3.553 3.553 0 01-.18.702c-.096.264-.252.623-.468 1.08l-1.26 2.681h-2.52zm11.799-2.88V41.6h4.248v9.306h5.688V54.2h-9.936zm11.38 0V41.6h4.248v9.306h5.688V54.2h-9.936zm11.379 0V41.6h6.066c1.176 0 2.19.192 3.042.576.864.384 1.53.936 1.998 1.657.468.708.702 1.547.702 2.52 0 .971-.234 1.811-.702 2.52-.468.708-1.134 1.26-1.998 1.656-.852.383-1.866.575-3.042.575h-3.708l1.89-1.818V54.2H236.5zm4.248-4.446l-1.89-1.925h3.438c.588 0 1.02-.133 1.296-.397.288-.264.432-.623.432-1.08 0-.455-.144-.816-.432-1.08-.276-.264-.708-.395-1.296-.395h-3.438l1.89-1.927v6.804z" fill="#101010"/></svg>
